X:1
T:Scattery Island
R:slide
D:Sean Ryan: Siuil Uait
D:Four Men and a Dog: Shifting Gravel
Z:id:hn-slide-21
M:6/8
K:D
FGA d2A|FGA dcd|e2A cBA|e2A cBA|
FGA d2A|FGA dcd|e2A cBA|1 f2e d2A:|2 f2e dfg||
|:~a3 faf|~d3 def|~g3 faf|~e3 efg|
~a3 faf|~d3 dcd|e2A cBA|1 f2e dfg:|2 f2e d2A||
"variations"
FAA d2A|FGA def|e2e cBA|feA cBA|
FGA d2A|FGA def|e2e cBA|1 cec d2A:|2 cec def||
|:aba afe|d3 def|gbg faf|gfg efg|
aba afe|d2d dcd|e2e cBA|1 cec dfg:|2 cec d2A||

